packages/docs/public/logos/qwik-logo.svg

<svg xmlns="http://www.w3.org/2000/svg" width="500" height="506" viewBox="0 0 500 506">
  <path fill="white" d="M370.826 224.859 156.157 16.117l23.021 158.743-50.004 49.999 213.863 198.793-12.209-158.792 39.998-40.001Z"/>
  <path fill="#18b6f6" d="m250 449.707 181.102 55.804-88.065-81.859-213.863-198.793 50.004-49.999-23.021-158.743L8.348 193.702a62.314 62.314 0 0 0 0 62.314l93.843 162.535a62.314 62.314 0 0 0 53.965 31.156H250Z"/>
  <path fill="#ac7ef4" d="M343.843 0H156.157a62.312 62.312 0 0 0-53.965 31.157L8.348 193.702 156.157 16.117l214.669 208.742-39.998 40.001 12.209 158.792 88.065 81.859c5.078 1.564 9.533-3.756 7.102-8.48l-40.395-78.48 93.842-162.535a62.313 62.313 0 0 0 .001-62.314L397.808 31.157A62.312 62.312 0 0 0 343.843 0Z"/>
</svg>

<svg width="500" height="506" viewBox="0 0 500 506" fill="none" xmlns="http://www.w3.org/2000/svg">
<path fill-rule="evenodd" clip-rule="evenodd" d="M250 449.707L431.102 505.511L343.037 423.652L129.174 224.859L179.178 174.86L156.157 16.117L8.34822 193.702C-2.78296 212.982 -2.78273 236.736 8.34883 256.016L102.191 418.551C113.323 437.831 133.894 449.707 156.156 449.707L250 449.707Z" fill="#18B6F6"/>
<path d="M343.843 0L156.157 1.74069e-05C133.894 1.94717e-05 113.323 11.8771 102.192 31.1573L8.34822 193.702L156.157 16.117L370.826 224.859L330.828 264.86L343.037 423.652L431.102 505.511C436.18 507.075 440.635 501.755 438.204 497.031L397.809 418.551L491.651 256.016C502.783 236.736 502.783 212.982 491.652 193.702L397.808 31.1572C386.677 11.8771 366.106 -2.06475e-06 343.843 0Z" fill="#AC7EF4"/>
<path d="M370.826 224.859L156.157 16.117L179.178 174.86L129.174 224.859L343.037 423.652L330.828 264.86L370.826 224.859Z" fill="white"/>
</svg>
